picto/tracks-13-fr-large-framed.svg

<svg class="color-immutable" width="30" height="30" viewBox="0 0 30 30" fill="none" xmlns="http://www.w3.org/2000/svg"><path d="M30 0H0V30H30V0Z" fill="#2D327D"/><path d="M25.5 3C26.325 3 27 3.675 27 4.5V25.5C27 26.325 26.325 27 25.5 27H4.5C3.675 27 3 26.325 3 25.5V4.5C3 3.675 3.675 3 4.5 3H25.5ZM25.5 2.625H4.5C3.46613 2.625 2.625 3.46613 2.625 4.5V25.5C2.625 26.5339 3.46613 27.375 4.5 27.375H25.5C26.5339 27.375 27.375 26.5339 27.375 25.5V4.5C27.375 3.46613 26.5339 2.625 25.5 2.625Z" fill="white"/><path d="M11.8254 10.5079V24H9.13065V15.1683H8.17088H7.21118H6.27908H5.95605V13.2119C6.61433 13.1934 7.15118 13.1258 7.56645 13.0088C7.98173 12.8921 8.36153 12.7013 8.70615 12.4367C9.20453 12.0553 9.5397 11.4123 9.71205 10.5079H11.8254Z" fill="white"/><path d="M14.5478 14.7807C14.5784 13.6732 14.8523 12.7444 15.3691 11.9937C16.2057 10.7879 17.464 10.1849 19.1435 10.1849C20.4356 10.1849 21.4784 10.5141 22.272 11.1724C23.127 11.8861 23.5548 12.8089 23.5548 13.9409C23.5548 14.6178 23.3871 15.2006 23.0519 15.6898C22.7165 16.1788 22.2628 16.5097 21.6907 16.6819C22.4165 16.848 22.9903 17.2171 23.4118 17.7893C23.8331 18.3615 24.044 19.0536 24.044 19.8658C24.044 21.2009 23.5517 22.2928 22.5674 23.1419C21.6567 23.9295 20.5063 24.3232 19.1159 24.3232C17.6084 24.3232 16.4134 23.8894 15.5306 23.0219C14.6477 22.1545 14.2063 20.9824 14.2063 19.5058C14.2063 19.4752 14.2063 19.4167 14.2063 19.3305H16.7995C16.7995 20.161 16.9963 20.8024 17.3901 21.2546C17.7838 21.7068 18.3407 21.9329 19.0604 21.9329C19.7802 21.9329 20.3339 21.7207 20.7215 21.2962C21.0783 20.8963 21.2568 20.4195 21.2568 19.8658C21.2568 19.2013 21.0291 18.6753 20.5739 18.2877C20.1986 17.9678 19.6202 17.8078 18.839 17.8078C18.6175 17.8078 18.399 17.8202 18.1838 17.8447V15.8606C18.3437 15.873 18.4976 15.8791 18.6452 15.8791C20.1956 15.8791 20.9708 15.3039 20.9708 14.1533C20.9708 13.6489 20.8015 13.2413 20.4632 12.9305C20.1247 12.6199 19.6787 12.4645 19.125 12.4645C18.4913 12.4645 18.0021 12.6614 17.6577 13.0551C17.3131 13.4489 17.1285 14.0241 17.104 14.7808H14.5478V14.7807Z" fill="white"/><path d="M8.03591 6L7.28839 8.24865H6.73009L5.99329 6H6.50704L7.01306 7.6842L7.52681 6H8.03591Z" fill="white"/><path d="M8.87413 6.5229C9.11818 6.5229 9.3176 6.6039 9.47248 6.7659C9.62525 6.92588 9.70168 7.13918 9.70168 7.40573C9.70168 7.68158 9.62015 7.90148 9.4571 8.06558C9.30433 8.21835 9.10543 8.29478 8.86033 8.29478C8.59888 8.29478 8.39068 8.20965 8.23588 8.03948C8.0882 7.87748 8.0144 7.66725 8.0144 7.40888C8.0144 7.15455 8.08618 6.94793 8.22973 6.789C8.38865 6.61163 8.60345 6.5229 8.87413 6.5229ZM8.8511 6.87053C8.7332 6.87053 8.63938 6.91823 8.56963 7.01355C8.4989 7.10993 8.4635 7.2417 8.4635 7.40888C8.4635 7.5822 8.49838 7.71495 8.56813 7.80728C8.6399 7.90058 8.73785 7.94723 8.8619 7.94723C8.97778 7.94723 9.06958 7.9047 9.13723 7.81958C9.2141 7.72523 9.25258 7.58835 9.25258 7.40888C9.25258 7.24073 9.21875 7.11 9.15103 7.0167C9.0803 6.91928 8.98033 6.87053 8.8511 6.87053Z" fill="white"/><path d="M10.4491 6V6.40147H10.0031V6H10.4491ZM10.4491 6.57217V8.24873H10.0031V6.57217H10.4491Z" fill="white"/><path d="M12.3209 7.72575C12.2973 7.8201 12.2547 7.90875 12.1932 7.99185C12.0456 8.19382 11.8333 8.29485 11.5565 8.29485C11.3063 8.29485 11.1058 8.21587 10.9551 8.058C10.8813 7.98112 10.8249 7.88827 10.7859 7.7796C10.7438 7.66372 10.7228 7.54275 10.7228 7.4166C10.7228 7.17255 10.7931 6.9675 10.9335 6.80137C11.0904 6.61575 11.2935 6.52297 11.5426 6.52297C11.7436 6.52297 11.9148 6.585 12.0564 6.70905C12.1579 6.79822 12.2317 6.90825 12.2778 7.03897C12.324 7.1697 12.3471 7.33402 12.3471 7.53195H11.1766C11.1807 7.614 11.1936 7.68217 11.2151 7.73655C11.2756 7.88317 11.3904 7.95652 11.5596 7.95652C11.6427 7.95652 11.7104 7.9383 11.7627 7.90192C11.8149 7.86555 11.858 7.80682 11.8919 7.72582H12.3209V7.72575ZM11.8918 7.23202C11.8836 7.15102 11.8652 7.08382 11.8365 7.0305C11.8077 6.97822 11.767 6.93667 11.7142 6.90592C11.6614 6.87517 11.6037 6.8598 11.5412 6.8598C11.4417 6.8598 11.3597 6.8931 11.2951 6.95977C11.2305 7.02645 11.1921 7.1172 11.1798 7.23202H11.8918Z" fill="white"/></svg>

<svg class="color-immutable" width="30" height="30" viewBox="0 0 30 30" fill="none" xmlns="http://www.w3.org/2000/svg"><g clip-path="url(#a)"><path d="M30 0H0v30h30V0Z" fill="#2D327D"/><path d="M25.5 3c.825 0 1.5.675 1.5 1.5v21c0 .825-.675 1.5-1.5 1.5h-21c-.825 0-1.5-.675-1.5-1.5v-21C3 3.675 3.675 3 4.5 3h21Zm0-.375h-21A1.877 1.877 0 0 0 2.625 4.5v21c0 1.034.841 1.875 1.875 1.875h21a1.877 1.877 0 0 0 1.875-1.875v-21A1.877 1.877 0 0 0 25.5 2.625Z" fill="#fff"/><path d="M11.825 10.508V24H9.131v-8.832H5.956v-1.956c.658-.019 1.195-.086 1.61-.203a3.338 3.338 0 0 0 1.14-.572c.499-.382.834-1.025 1.006-1.93h2.113ZM14.548 14.78c.03-1.107.304-2.036.821-2.786.837-1.206 2.095-1.81 3.774-1.81 1.293 0 2.335.33 3.129.988.855.714 1.283 1.637 1.283 2.769 0 .677-.168 1.26-.503 1.749-.335.489-.79.82-1.361.992.726.166 1.3.535 1.72 1.107.422.572.633 1.265.633 2.077 0 1.335-.492 2.427-1.477 3.276-.91.788-2.06 1.181-3.451 1.181-1.508 0-2.703-.434-3.585-1.301-.883-.867-1.325-2.04-1.325-3.516v-.175H16.8c0 .83.197 1.471.591 1.924.394.452.95.678 1.67.678s1.274-.212 1.662-.637c.356-.4.535-.877.535-1.43 0-.665-.228-1.19-.683-1.578-.375-.32-.954-.48-1.735-.48-.221 0-.44.012-.655.037V15.86c.16.012.314.018.461.018 1.55 0 2.326-.575 2.326-1.726 0-.504-.17-.912-.508-1.223-.338-.31-.784-.466-1.338-.466-.634 0-1.123.197-1.467.591-.345.394-.53.97-.554 1.726h-2.556ZM8.036 6l-.748 2.249H6.73L5.993 6h.514l.506 1.684L7.527 6h.509ZM8.874 6.523c.244 0 .444.08.598.243.153.16.23.373.23.64 0 .276-.082.495-.245.66a.807.807 0 0 1-.597.229c-.261 0-.47-.085-.624-.256-.148-.162-.222-.372-.222-.63 0-.254.072-.461.216-.62.159-.177.373-.266.644-.266Zm-.023.348a.331.331 0 0 0-.281.143.656.656 0 0 0-.107.395c0 .173.035.306.105.398a.35.35 0 0 0 .294.14.333.333 0 0 0 .275-.127c.077-.095.116-.232.116-.411 0-.168-.034-.299-.102-.392a.349.349 0 0 0-.3-.146ZM10.45 6v.401h-.447V6h.446Zm0 .572V8.25h-.447V6.572h.446ZM12.32 7.726a.751.751 0 0 1-.127.266c-.147.202-.36.303-.636.303-.25 0-.451-.08-.602-.237a.773.773 0 0 1-.17-.278 1.055 1.055 0 0 1-.062-.363c0-.244.07-.45.21-.616a.76.76 0 0 1 .61-.278.753.753 0 0 1 .735.516c.046.13.07.295.07.493h-1.171a.65.65 0 0 0 .038.205c.06.146.175.22.345.22.083 0 .15-.019.203-.055a.391.391 0 0 0 .129-.176h.429Zm-.428-.494a.54.54 0 0 0-.056-.202.338.338 0 0 0-.295-.17c-.1 0-.181.033-.246.1a.446.446 0 0 0-.115.272h.712Z" fill="#fff"/></g><defs><clipPath id="a"><path fill="#fff" d="M0 0h30v30H0z"/></clipPath></defs></svg>
